shelter/assets/icons/credit-card.svg

<svg width="30" height="23" viewBox="0 0 30 23" fill="none" xmlns="http://www.w3.org/2000/svg">
<path d="M25.9815 23H4.01915C1.80285 23 0 21.2046 0 19.0001V3.9999C0 1.79421 1.80285 0 4.01915 0H25.9808C28.196 0 30 1.79421 30 3.9999V19.0001C30.0006 21.2052 28.1972 23 25.9815 23ZM4.01915 1.14285C2.43563 1.14285 1.14836 2.42396 1.14836 3.9999V19.0001C1.14836 20.5755 2.43563 21.8571 4.01915 21.8571H25.9808C27.5638 21.8571 28.8516 20.5755 28.8516 19.0001V3.9999C28.8516 2.42396 27.5638 1.14285 25.9808 1.14285H4.01915ZM20.7037 3.35993C22.1363 3.35993 23.2977 4.51532 23.2977 5.94153C23.2977 7.36774 22.1368 8.52376 20.7037 8.52376C19.2706 8.52376 18.1097 7.36783 18.1097 5.94153C18.1097 4.51523 19.2712 3.35993 20.7037 3.35993ZM24.3204 3.35993C25.7529 3.35993 26.9151 4.51532 26.9151 5.94153C26.9151 7.36774 25.7536 8.52376 24.3204 8.52376C22.8873 8.52376 21.7264 7.36783 21.7264 5.94153C21.7264 4.51523 22.8879 3.35993 24.3204 3.35993ZM3.0861 16.3339H7.8683V18.0481H3.0861V16.3339ZM9.43467 16.3339H14.2175V18.0481H9.43467V16.3339ZM15.782 16.3339H20.5659V18.0481H15.782V16.3339ZM22.1305 16.3339H26.9144V18.0481H22.1305V16.3339ZM3.0861 3.36046H12.1263V5.07474H3.0861V3.36046ZM3.0861 6.76208H7.86946V8.47637H3.0861V6.76208Z" fill="#292929"/>
</svg>

<svg width="30" height="23" fill="none" xmlns="http://www.w3.org/2000/svg"><path d="M25.982 23H4.018C1.803 23 0 21.205 0 19V4c0-2.206 1.803-4 4.02-4h21.96C28.197 0 30 1.794 30 4v15c0 2.205-1.803 4-4.018 4zM4.018 1.143A2.866 2.866 0 0 0 1.15 4v15a2.867 2.867 0 0 0 2.87 2.857h21.962A2.867 2.867 0 0 0 28.85 19V4a2.867 2.867 0 0 0-2.87-2.857H4.019zM20.704 3.36a2.588 2.588 0 0 1 2.594 2.582 2.588 2.588 0 0 1-2.594 2.582 2.588 2.588 0 0 1-2.594-2.582 2.588 2.588 0 0 1 2.594-2.582zm3.616 0a2.588 2.588 0 0 1 2.595 2.582 2.588 2.588 0 0 1-2.595 2.582 2.588 2.588 0 0 1-2.594-2.582A2.588 2.588 0 0 1 24.32 3.36zM3.086 16.334h4.782v1.714H3.086v-1.714zm6.349 0h4.782v1.714H9.435v-1.714zm6.347 0h4.784v1.714h-4.784v-1.714zm6.349 0h4.783v1.714H22.13v-1.714zM3.085 3.36h9.04v1.715h-9.04V3.36zm0 3.402H7.87v1.714H3.086V6.762z" fill="#292929"/></svg>
